X:10
T:Autumn's Golden Shades
R:jig
C:Jim McGraw
O:Co. Fermanagh, Ireland
S:http://www.cranfordpub.com/recordings/mcgraw.htm
D:Melodious Accord, Jim McGraw
Z:psc
H:Refers to the beautiful transition of colour from green to brown to bare which is witnessed each October from our kitchen window in Drumbeggan.
L:1/8
Q:300
M:6/8
K:A
eaf e2 c|daf ecA|F/G/AF EAf|ecd B3|
eaf e2 c|daf ecA|F/G/AF EA/B/c|dBG A3:|
|:B3 Bcd|caf ecA|agf ecA|cBA BF/G/A|
B3 Bcd|caf ecA|F/G/AF EA/B/c|dBG A3:|
